packages/foundations/assets/icons/functional/images/layout/resize_12.svg

<svg width="12" height="12" viewBox="0 0 12 12" fill="none" xmlns="http://www.w3.org/2000/svg">
<g clip-path="url(#clip0_232_289)">
<path fill-rule="evenodd" clip-rule="evenodd" d="M4.19995 7.20001C4.50765 7.20001 4.79995 7.45301 4.79995 7.80001V10.2C4.79995 10.5077 4.55531 10.8 4.19995 10.8H1.79995C1.50482 10.8 1.19995 10.5639 1.19995 10.2V7.80001C1.19995 7.49231 1.45168 7.20001 1.79995 7.20001H4.19995ZM9.59995 1.20001C10.2326 1.20001 10.8 1.71824 10.8 2.40001V8.40001C10.8 9.03263 10.2784 9.60001 9.59995 9.60001H6.29995C5.96858 9.60001 5.69995 9.33138 5.69995 9.00001C5.69995 8.69231 5.94664 8.40001 6.29995 8.40001H9.59995V2.40001H3.59995V5.70001C3.59995 6.03138 3.33132 6.30001 2.99995 6.30001C2.69225 6.30001 2.39995 6.04349 2.39995 5.70001V2.40001C2.39995 1.7674 2.90109 1.20001 3.59995 1.20001H9.59995ZM3.59995 8.40001H2.39995V9.60001H3.59995V8.40001Z" fill="#1A1C1F"/>
</g>
<defs>
<clipPath id="clip0_232_289">
<rect width="12" height="12" fill="white"/>
</clipPath>
</defs>
</svg>

<svg xmlns="http://www.w3.org/2000/svg" width="12" height="12" fill="none"><g clip-path="url(#a)"><path fill="#1A1C1F" fill-rule="evenodd" d="M4.2 7.2c.308 0 .6.253.6.6v2.4a.6.6 0 0 1-.6.6H1.8a.6.6 0 0 1-.6-.6V7.8c0-.308.252-.6.6-.6zm5.4-6c.633 0 1.2.518 1.2 1.2v6c0 .633-.522 1.2-1.2 1.2H6.3a.6.6 0 0 1 0-1.2h3.3v-6h-6v3.3a.6.6 0 0 1-.6.6.607.607 0 0 1-.6-.6V2.4c0-.633.501-1.2 1.2-1.2zm-6 7.2H2.4v1.2h1.2z" clip-rule="evenodd"/></g><defs><clipPath id="a"><path fill="#fff" d="M0 0h12v12H0z"/></clipPath></defs></svg>
